X: 1
T: Cathy's Favourite
C: Trad
R: Polka
M: 2/4
L: 1/8
K: Gmaj
Q: 1/4=140
Z: ABC transcription by Verge Roller
r: 32
|: "G" G>A Bd | "G" gf ed | "Am" eA AB | "D" cd/c/ BA |
"G" G>A Bd | "G" gf ed | "Am" ea "D" ef | "G" g2 g2 :|
|: "Am" ae ae | "Am" ae e>f | "G" gd gd | "G" gd d2 |
"Am" ae ae | "Am" ae e>f | "G" ge dB | "Am" A2 A2 :|]
